images/fingerprints.svg

<svg width="108" height="126" viewBox="0 0 108 126" fill="none" xmlns="http://www.w3.org/2000/svg">
<rect x="0.400391" y="54.3535" width="75.9573" height="75.9573" rx="15" transform="rotate(-19.4984 0.400391 54.3535)" fill="#493B64"/>
<g filter="url(#filter0_b)">
<rect x="9" y="24.1279" width="78.6094" height="78.6094" rx="15" transform="rotate(-17.8735 9 24.1279)" fill="url(#paint0_linear)"/>
<g clip-path="url(#clip0)">
<path d="M37.177 62.6833C36.6765 62.8447 36.1147 62.637 35.8477 62.1607C32.4418 56.085 31.6208 49.0496 33.5365 42.3525C33.7073 41.7535 34.3325 41.4061 34.9306 41.5778C35.5298 41.7491 35.8763 42.3734 35.705 42.9726C33.9561 49.0869 34.7058 55.51 37.8161 61.0584C38.1203 61.6015 37.927 62.2887 37.3836 62.5936C37.3165 62.6314 37.2473 62.6607 37.177 62.6833Z" fill="url(#paint1_linear)"/>
<path d="M37.0822 38.5933C36.7971 38.6853 36.4765 38.6637 36.1933 38.5085C35.6471 38.209 35.4479 37.5233 35.7473 36.9766C38.0768 32.7361 41.5488 29.2394 45.7878 26.8632C50.96 23.9662 56.7747 22.9359 62.6118 23.8843C63.2269 23.9845 63.6441 24.564 63.5445 25.1794C63.4441 25.7939 62.8644 26.2088 62.2504 26.1117C56.9212 25.2438 51.609 26.1849 46.8912 28.8312C43.0206 31.0006 39.8508 34.1928 37.7248 38.0632C37.5802 38.3251 37.3469 38.508 37.0822 38.5933Z" fill="url(#paint2_linear)"/>
<path d="M80.4459 38.4293C79.9453 38.5907 79.3839 38.3841 79.1166 37.9067C76.467 33.1807 72.2399 29.4784 67.2145 27.4836C66.6352 27.2538 66.3522 26.5986 66.5818 26.0188C66.8122 25.4411 67.4693 25.1586 68.0463 25.3868C73.5522 27.5727 78.1821 31.6265 81.0849 36.8044C81.3891 37.3474 81.1958 38.0347 80.6524 38.3395C80.5853 38.3774 80.5161 38.4067 80.4459 38.4293Z" fill="url(#paint3_linear)"/>
<path d="M82.5849 43.4146C82.5776 43.417 82.5708 43.4192 82.5639 43.4214C81.9674 43.601 81.3383 43.2634 81.158 42.6666C80.6611 41.018 79.9789 39.414 79.1293 37.8989C78.8251 37.3558 79.0184 36.6686 79.5618 36.3637C80.1083 36.0578 80.7929 36.2537 81.0976 36.7966C82.0267 38.4539 82.7737 40.2105 83.3184 42.0162C83.4955 42.6048 83.1683 43.2265 82.5849 43.4146Z" fill="url(#paint4_linear)"/>
<path d="M37.7402 63.6121C37.2585 63.7675 36.7148 63.5817 36.4362 63.1323C36.2384 62.813 36.0456 62.4863 35.8601 62.155C35.5559 61.6119 35.7497 60.9245 36.2931 60.6196C36.831 60.3119 37.5243 60.5096 37.8284 61.0527C37.9976 61.3546 38.1728 61.6522 38.3539 61.9445C38.682 62.474 38.5185 63.169 37.9889 63.4972C37.9092 63.546 37.8256 63.5846 37.7402 63.6121Z" fill="url(#paint5_linear)"/>
<path d="M60.0744 75.3294C59.8228 75.4106 59.5418 75.404 59.2801 75.2905C58.709 75.043 58.4462 74.379 58.6936 73.8073C62.0532 66.0556 61.614 57.3891 57.4889 50.0304C57.1847 49.4874 57.378 48.8001 57.9214 48.4953C58.4659 48.1866 59.1525 48.3853 59.4572 48.9281C63.9288 56.9053 64.4051 66.3006 60.7639 74.7044C60.6294 75.0139 60.3726 75.2333 60.0744 75.3294Z" fill="url(#paint6_linear)"/>
<path d="M67.1737 73.9069C66.9651 73.9742 66.7342 73.9815 66.5078 73.9145C65.9109 73.7378 65.57 73.1094 65.7474 72.5129C68.2476 64.0754 67.1122 53.8384 62.921 47.0392C61.2917 44.3752 58.5678 43.5905 55.9786 45.0446C53.4803 46.4451 52.6516 49.4216 54.0513 51.9676C57.9132 58.9945 57.9259 67.3218 54.0845 74.2417C53.7821 74.786 53.0964 74.9816 52.5509 74.6807C52.0067 74.3783 51.8101 73.6917 52.1122 73.1464C55.5753 66.9087 55.5609 59.3978 52.0744 53.0542C50.0607 49.3903 51.2646 45.1009 54.8753 43.0766C58.5027 41.0469 62.5986 42.1888 64.8434 45.8591C69.3489 53.1681 70.582 64.1385 67.9098 73.1534C67.7997 73.5245 67.516 73.7965 67.1737 73.9069Z" fill="url(#paint7_linear)"/>
<path d="M47.5001 72.6279C47.1893 72.7282 46.8378 72.6934 46.542 72.5029C46.0187 72.1648 45.8677 71.467 46.2053 70.9438C48.7258 67.0353 49.2092 62.1322 47.4985 57.8302C47.268 57.2518 47.5506 56.5959 48.1295 56.3652C48.6985 56.147 49.3641 56.4184 49.5941 56.997C51.5738 61.9749 51.0163 67.646 48.1015 72.1655C47.9545 72.3934 47.7396 72.5507 47.5001 72.6279Z" fill="url(#paint8_linear)"/>
<path d="M71.7126 48.7574C71.1596 48.9357 70.5531 48.6626 70.3261 48.1167C69.7394 46.7065 69.0604 45.3099 68.3069 43.9674C68.2956 43.9467 68.2849 43.9259 68.2746 43.9049C66.7981 41.3073 64.4039 39.4326 61.5251 38.6216C58.6251 37.8058 55.5809 38.1649 52.9506 39.6404C48.6462 42.0526 46.3825 47.0982 47.4456 51.9111C47.5794 52.5195 47.2054 53.14 46.5874 53.2549C45.9794 53.3896 45.3769 53.0053 45.2426 52.397C43.9674 46.6214 46.6834 40.5666 51.8472 37.6723C58.3605 34.0246 66.6255 36.3507 70.2767 42.8623C70.2889 42.8838 70.3 42.9057 70.3106 42.9278C71.0926 44.3282 71.7982 45.7822 72.4088 47.2506C72.6482 47.8261 72.3755 48.4858 71.8007 48.7255C71.7715 48.7373 71.7419 48.7479 71.7126 48.7574Z" fill="url(#paint9_linear)"/>
<path d="M74.3873 69.8593C74.2295 69.9101 74.0585 69.9271 73.8834 69.9026C73.2665 69.8145 72.8375 69.2434 72.9254 68.626C73.6588 63.4768 73.3721 58.3244 72.0723 53.3124C71.9163 52.71 72.2853 52.1014 72.8814 51.9382C73.4843 51.7819 74.0997 52.1436 74.2566 52.7469C75.6307 58.0485 75.9343 63.4975 75.1589 68.945C75.0959 69.3866 74.7851 69.731 74.3873 69.8593Z" fill="url(#paint10_linear)"/>
<path d="M42.3746 69.1342C42.0701 69.2324 41.7261 69.201 41.433 69.0189C40.9036 68.6909 40.741 67.9945 41.0699 67.4661C42.6239 64.964 42.7187 61.8272 41.3269 59.2463C41.3001 59.2098 41.2755 59.1714 41.2528 59.1313C36.3253 50.3417 38.7821 39.297 46.9672 33.4425C47.473 33.0803 48.1781 33.1978 48.5412 33.7045C48.9033 34.2104 48.7865 34.9158 48.2802 35.2781C41.0692 40.4354 38.8795 50.1407 43.1523 57.9054C43.18 57.9427 43.2063 57.9829 43.2294 58.024C45.0903 61.3436 44.9976 65.4183 42.9859 68.6559C42.8392 68.8918 42.6199 69.0551 42.3746 69.1342Z" fill="url(#paint11_linear)"/>
<path d="M80.9318 61.7795C80.8406 61.8089 80.7436 61.8274 80.6427 61.8322C80.0208 61.8649 79.491 61.3866 79.4586 60.764C79.0996 53.7867 77.1812 47.1399 73.7555 41.0046C73.7409 40.9827 73.7265 40.9595 73.7128 40.935C69.6573 33.7009 60.999 30.2969 53.1212 32.8373C53.116 32.839 53.1058 32.8434 53.1076 32.8417C52.5153 33.0327 51.8798 32.7076 51.6883 32.1155C51.4964 31.5224 51.8214 30.8864 52.4142 30.6952C52.4189 30.6937 52.4241 30.692 52.4289 30.6905C61.2994 27.8299 71.0445 31.6414 75.6404 39.7602C75.6557 39.7842 75.6701 39.8074 75.6847 39.8328C79.3056 46.2916 81.3333 53.2955 81.7116 60.6485C81.7386 61.1698 81.4062 61.6265 80.9318 61.7795Z" fill="url(#paint12_linear)"/>
<path opacity="0.8" d="M83.5405 39.018L32.0156 55.6338L33.4003 59.9275L84.9252 43.3117L83.5405 39.018Z" fill="url(#paint13_linear)"/>
</g>
<rect x="8.37067" y="23.8055" width="79.6094" height="79.6094" rx="15.5" transform="rotate(-17.8735 8.37067 23.8055)" stroke="url(#paint14_linear)"/>
</g>
<defs>
<filter id="filter0_b" x="6" y="-2.99902" width="104.942" height="104.942" filterUnits="userSpaceOnUse" color-interpolation-filters="sRGB">
<feFlood flood-opacity="0" result="BackgroundImageFix"/>
<feGaussianBlur in="BackgroundImage" stdDeviation="1.5"/>
<feComposite in2="SourceAlpha" operator="in" result="effect1_backgroundBlur"/>
<feBlend mode="normal" in="SourceGraphic" in2="effect1_backgroundBlur" result="shape"/>
</filter>
<linearGradient id="paint0_linear" x1="48.3047" y1="24.1279" x2="48.3047" y2="102.737" gradientUnits="userSpaceOnUse">
<stop stop-color="#3A74A5" stop-opacity="0.6"/>
<stop offset="1" stop-color="white" stop-opacity="0.2"/>
</linearGradient>
<linearGradient id="paint1_linear" x1="32.2717" y1="42.2345" x2="38.7069" y2="62.19" gradientUnits="userSpaceOnUse">
<stop stop-color="white" stop-opacity="0.6"/>
<stop offset="1" stop-color="white" stop-opacity="0.2"/>
</linearGradient>
<linearGradient id="paint2_linear" x1="47.7818" y1="25.6716" x2="50.5485" y2="34.2507" gradientUnits="userSpaceOnUse">
<stop stop-color="white" stop-opacity="0.6"/>
<stop offset="1" stop-color="white" stop-opacity="0.2"/>
</linearGradient>
<linearGradient id="paint3_linear" x1="71.3375" y1="24.0558" x2="76.3941" y2="39.7359" gradientUnits="userSpaceOnUse">
<stop stop-color="white" stop-opacity="0.6"/>
<stop offset="1" stop-color="white" stop-opacity="0.2"/>
</linearGradient>
<linearGradient id="paint4_linear" x1="80.0021" y1="36.1981" x2="82.3534" y2="43.4893" gradientUnits="userSpaceOnUse">
<stop stop-color="white" stop-opacity="0.6"/>
<stop offset="1" stop-color="white" stop-opacity="0.2"/>
</linearGradient>
<linearGradient id="paint5_linear" x1="36.6105" y1="60.4923" x2="37.6282" y2="63.6482" gradientUnits="userSpaceOnUse">
<stop stop-color="white" stop-opacity="0.6"/>
<stop offset="1" stop-color="white" stop-opacity="0.2"/>
</linearGradient>
<linearGradient id="paint6_linear" x1="55.3441" y1="49.3018" x2="63.3925" y2="74.2594" gradientUnits="userSpaceOnUse">
<stop stop-color="white" stop-opacity="0.6"/>
<stop offset="1" stop-color="white" stop-opacity="0.2"/>
</linearGradient>
<linearGradient id="paint7_linear" x1="53.4806" y1="43.3563" x2="63.6944" y2="75.0289" gradientUnits="userSpaceOnUse">
<stop stop-color="white" stop-opacity="0.6"/>
<stop offset="1" stop-color="white" stop-opacity="0.2"/>
</linearGradient>
<linearGradient id="paint8_linear" x1="45.5201" y1="57.205" x2="50.2117" y2="71.7535" gradientUnits="userSpaceOnUse">
<stop stop-color="white" stop-opacity="0.6"/>
<stop offset="1" stop-color="white" stop-opacity="0.2"/>
</linearGradient>
<linearGradient id="paint9_linear" x1="54.5361" y1="36.5239" x2="59.7275" y2="52.6224" gradientUnits="userSpaceOnUse">
<stop stop-color="white" stop-opacity="0.6"/>
<stop offset="1" stop-color="white" stop-opacity="0.2"/>
</linearGradient>
<linearGradient id="paint10_linear" x1="70.9149" y1="52.5711" x2="76.2919" y2="69.245" gradientUnits="userSpaceOnUse">
<stop stop-color="white" stop-opacity="0.6"/>
<stop offset="1" stop-color="white" stop-opacity="0.2"/>
</linearGradient>
<linearGradient id="paint11_linear" x1="39.821" y1="35.6906" x2="49.8306" y2="66.7298" gradientUnits="userSpaceOnUse">
<stop stop-color="white" stop-opacity="0.6"/>
<stop offset="1" stop-color="white" stop-opacity="0.2"/>
</linearGradient>
<linearGradient id="paint12_linear" x1="61.5372" y1="27.7532" x2="73.3033" y2="64.2395" gradientUnits="userSpaceOnUse">
<stop stop-color="white" stop-opacity="0.6"/>
<stop offset="1" stop-color="white" stop-opacity="0.2"/>
</linearGradient>
<linearGradient id="paint13_linear" x1="57.7781" y1="47.3259" x2="61" y2="57.501" gradientUnits="userSpaceOnUse">
<stop stop-color="#F4333D"/>
<stop offset="1" stop-color="white"/>
</linearGradient>
<linearGradient id="paint14_linear" x1="48.3047" y1="24.1279" x2="48.3047" y2="102.737" gradientUnits="userSpaceOnUse">
<stop stop-color="#3A74A5" stop-opacity="0.6"/>
<stop offset="1" stop-color="white" stop-opacity="0.2"/>
</linearGradient>
<clipPath id="clip0">
<rect width="54.1378" height="54.1378" fill="white" transform="translate(24.4004 32.0176) rotate(-17.8735)"/>
</clipPath>
</defs>
</svg>

<svg width="108" height="126" fill="none" xmlns="http://www.w3.org/2000/svg"><rect x=".4" y="54.353" width="75.957" height="75.957" rx="15" transform="rotate(-19.498 .4 54.353)" fill="#493B64"/><g filter="url(#filter0_b)"><rect x="9" y="24.128" width="78.609" height="78.609" rx="15" transform="rotate(-17.873 9 24.128)" fill="url(#paint0_linear)"/><g clip-path="url(#clip0)"><path d="M37.177 62.683a1.129 1.129 0 01-1.33-.522c-3.405-6.076-4.226-13.111-2.31-19.809a1.127 1.127 0 112.168.62c-1.749 6.115-1 12.538 2.111 18.086a1.128 1.128 0 01-.639 1.625z" fill="url(#paint1_linear)"/><path d="M37.082 38.593a1.128 1.128 0 01-1.335-1.617 25.869 25.869 0 0110.04-10.113c5.173-2.897 10.988-3.927 16.825-2.979a1.129 1.129 0 01-.362 2.228c-5.329-.868-10.641.073-15.359 2.72a23.612 23.612 0 00-9.166 9.231 1.127 1.127 0 01-.643.53z" fill="url(#paint2_linear)"/><path d="M80.446 38.43a1.128 1.128 0 01-1.33-.523 23.727 23.727 0 00-11.901-10.423 1.128 1.128 0 11.831-2.097 25.99 25.99 0 0113.039 11.417 1.128 1.128 0 01-.64 1.625z" fill="url(#paint3_linear)"/><path d="M82.585 43.415a1.129 1.129 0 01-1.427-.748 23.82 23.82 0 00-2.029-4.768 1.128 1.128 0 011.969-1.102 26.121 26.121 0 012.22 5.22c.178.588-.15 1.21-.733 1.398z" fill="url(#paint4_linear)"/><path d="M37.74 63.612a1.129 1.129 0 01-1.304-.48c-.198-.319-.39-.646-.576-.977a1.129 1.129 0 011.968-1.102c.17.302.345.6.526.892a1.128 1.128 0 01-.614 1.667z" fill="url(#paint5_linear)"/><path d="M60.074 75.33a1.128 1.128 0 01-1.38-1.522c3.36-7.752 2.92-16.419-1.205-23.778a1.128 1.128 0 011.968-1.102c4.472 7.977 4.948 17.373 1.307 25.776-.135.31-.391.53-.69.625z" fill="url(#paint6_linear)"/><path d="M67.174 73.907a1.127 1.127 0 01-1.426-1.394c2.5-8.438 1.364-18.675-2.827-25.474-1.63-2.664-4.353-3.449-6.942-1.994-2.499 1.4-3.327 4.377-1.928 6.923 3.862 7.026 3.875 15.354.033 22.274a1.13 1.13 0 01-1.972-1.095c3.463-6.238 3.449-13.75-.038-20.093-2.013-3.664-.81-7.953 2.801-9.977 3.628-2.03 7.724-.888 9.968 2.782 4.506 7.31 5.739 18.28 3.067 27.294-.11.371-.394.643-.736.754z" fill="url(#paint7_linear)"/><path d="M47.5 72.628a1.126 1.126 0 01-1.295-1.684A14.417 14.417 0 0047.5 57.83a1.128 1.128 0 01.63-1.465 1.142 1.142 0 011.465.632 16.674 16.674 0 01-1.492 15.168 1.124 1.124 0 01-.602.463z" fill="url(#paint8_linear)"/><path d="M71.713 48.757a1.128 1.128 0 01-1.387-.64 39.553 39.553 0 00-2.051-4.212 11.209 11.209 0 00-6.75-5.283 11.205 11.205 0 00-8.574 1.018c-4.305 2.413-6.569 7.458-5.505 12.271.133.608-.24 1.229-.859 1.344a1.128 1.128 0 01-1.344-.858c-1.276-5.776 1.44-11.83 6.604-14.725 6.514-3.647 14.779-1.321 18.43 5.19l.034.066a41.888 41.888 0 012.098 4.323 1.128 1.128 0 01-.696 1.506z" fill="url(#paint9_linear)"/><path d="M74.387 69.86a1.129 1.129 0 01-1.462-1.234 38.863 38.863 0 00-.853-15.314 1.137 1.137 0 01.81-1.374 1.128 1.128 0 011.375.809 41.128 41.128 0 01.902 16.198 1.128 1.128 0 01-.772.914z" fill="url(#paint10_linear)"/><path d="M42.375 69.134a1.127 1.127 0 01-1.305-1.668 8.203 8.203 0 00.257-8.22 1.157 1.157 0 01-.074-.115c-4.928-8.79-2.47-19.834 5.714-25.688a1.129 1.129 0 011.313 1.835c-7.21 5.157-9.4 14.863-5.128 22.627.028.038.054.078.077.119a10.459 10.459 0 01-.243 10.632c-.147.236-.366.4-.611.478z" fill="url(#paint11_linear)"/><path d="M80.932 61.78a1.127 1.127 0 01-1.473-1.015c-.36-6.978-2.278-13.625-5.703-19.76a1.045 1.045 0 01-.043-.07c-4.056-7.234-12.714-10.638-20.592-8.098l-.013.005a1.128 1.128 0 01-.694-2.147l.015-.005c8.87-2.86 18.615.951 23.211 9.07.016.024.03.047.045.073 3.62 6.459 5.648 13.462 6.027 20.816.027.52-.306.977-.78 1.13z" fill="url(#paint12_linear)"/><path opacity=".8" d="M83.54 39.018L32.016 55.634l1.384 4.294 51.525-16.616-1.385-4.294z" fill="url(#paint13_linear)"/></g><rect x="8.371" y="23.805" width="79.609" height="79.609" rx="15.5" transform="rotate(-17.873 8.37 23.805)" stroke="url(#paint14_linear)"/></g><defs><linearGradient id="paint0_linear" x1="48.305" y1="24.128" x2="48.305" y2="102.737" gradientUnits="userSpaceOnUse"><stop stop-color="#3A74A5" stop-opacity=".6"/><stop offset="1" stop-color="#fff" stop-opacity=".2"/></linearGradient><linearGradient id="paint1_linear" x1="32.272" y1="42.234" x2="38.707" y2="62.19" gradientUnits="userSpaceOnUse"><stop stop-color="#fff" stop-opacity=".6"/><stop offset="1" stop-color="#fff" stop-opacity=".2"/></linearGradient><linearGradient id="paint2_linear" x1="47.782" y1="25.672" x2="50.548" y2="34.251" gradientUnits="userSpaceOnUse"><stop stop-color="#fff" stop-opacity=".6"/><stop offset="1" stop-color="#fff" stop-opacity=".2"/></linearGradient><linearGradient id="paint3_linear" x1="71.338" y1="24.056" x2="76.394" y2="39.736" gradientUnits="userSpaceOnUse"><stop stop-color="#fff" stop-opacity=".6"/><stop offset="1" stop-color="#fff" stop-opacity=".2"/></linearGradient><linearGradient id="paint4_linear" x1="80.002" y1="36.198" x2="82.353" y2="43.489" gradientUnits="userSpaceOnUse"><stop stop-color="#fff" stop-opacity=".6"/><stop offset="1" stop-color="#fff" stop-opacity=".2"/></linearGradient><linearGradient id="paint5_linear" x1="36.611" y1="60.492" x2="37.628" y2="63.648" gradientUnits="userSpaceOnUse"><stop stop-color="#fff" stop-opacity=".6"/><stop offset="1" stop-color="#fff" stop-opacity=".2"/></linearGradient><linearGradient id="paint6_linear" x1="55.344" y1="49.302" x2="63.392" y2="74.259" gradientUnits="userSpaceOnUse"><stop stop-color="#fff" stop-opacity=".6"/><stop offset="1" stop-color="#fff" stop-opacity=".2"/></linearGradient><linearGradient id="paint7_linear" x1="53.481" y1="43.356" x2="63.694" y2="75.029" gradientUnits="userSpaceOnUse"><stop stop-color="#fff" stop-opacity=".6"/><stop offset="1" stop-color="#fff" stop-opacity=".2"/></linearGradient><linearGradient id="paint8_linear" x1="45.52" y1="57.205" x2="50.212" y2="71.754" gradientUnits="userSpaceOnUse"><stop stop-color="#fff" stop-opacity=".6"/><stop offset="1" stop-color="#fff" stop-opacity=".2"/></linearGradient><linearGradient id="paint9_linear" x1="54.536" y1="36.524" x2="59.727" y2="52.622" gradientUnits="userSpaceOnUse"><stop stop-color="#fff" stop-opacity=".6"/><stop offset="1" stop-color="#fff" stop-opacity=".2"/></linearGradient><linearGradient id="paint10_linear" x1="70.915" y1="52.571" x2="76.292" y2="69.245" gradientUnits="userSpaceOnUse"><stop stop-color="#fff" stop-opacity=".6"/><stop offset="1" stop-color="#fff" stop-opacity=".2"/></linearGradient><linearGradient id="paint11_linear" x1="39.821" y1="35.691" x2="49.831" y2="66.73" gradientUnits="userSpaceOnUse"><stop stop-color="#fff" stop-opacity=".6"/><stop offset="1" stop-color="#fff" stop-opacity=".2"/></linearGradient><linearGradient id="paint12_linear" x1="61.537" y1="27.753" x2="73.303" y2="64.24" gradientUnits="userSpaceOnUse"><stop stop-color="#fff" stop-opacity=".6"/><stop offset="1" stop-color="#fff" stop-opacity=".2"/></linearGradient><linearGradient id="paint13_linear" x1="57.778" y1="47.326" x2="61" y2="57.501" gradientUnits="userSpaceOnUse"><stop stop-color="#F4333D"/><stop offset="1" stop-color="#fff"/></linearGradient><linearGradient id="paint14_linear" x1="48.305" y1="24.128" x2="48.305" y2="102.737" gradientUnits="userSpaceOnUse"><stop stop-color="#3A74A5" stop-opacity=".6"/><stop offset="1" stop-color="#fff" stop-opacity=".2"/></linearGradient><clipPath id="clip0"><path fill="#fff" transform="rotate(-17.873 114.003 -61.574)" d="M0 0h54.138v54.138H0z"/></clipPath><filter id="filter0_b" x="6" y="-2.999" width="104.942" height="104.942" filterUnits="userSpaceOnUse" color-interpolation-filters="sRGB"><feFlood flood-opacity="0" result="BackgroundImageFix"/><feGaussianBlur in="BackgroundImage" stdDeviation="1.5"/><feComposite in2="SourceAlpha" operator="in" result="effect1_backgroundBlur"/><feBlend in="SourceGraphic" in2="effect1_backgroundBlur" result="shape"/></filter></defs></svg>
